X:12020
T:Ladies Pleasure
R:Jig
C:Trad.
O:England; Bledington
Z:Paul Hardy's Session Tunebook 2022 (see www.paulhardy.net). Creative Commons cc by-nc-sa licenced.
P:A.AB.CB.CB
M:6/8
L:1/8
Q:3/8=100
K:G
P:A
"G"g2g B2c|d2B G2D|"C"G>GG "D7"ABc|"G"B2A "D"A2d|"G"g2g B2c|d2B G2D|"C"G>GG "Am"ABc|"D7"B2A "G"G3||
P:B
"Am"A>AA "C"cBc|"Am"A>AA "C"cBc|"Am"A>Bc "D"def|"Em"gfe "D"d2d|"G"g2g B2c|d2B G2D|"C"G>GG "Am"ABc|"D7"B2A "G"G3||
P:C
[M:3/8]|:"G"d3|[M:6/8]g3 g3|B3 "C"c3|"G"d3 B3|[M:3/8]G2D|[M:6/8]"C"G>GG "Am"ABc|1"D7"B2A A3:|2"D7"B2A "G"G3|]

